X: 36397
T: Seán Sa Cheo
R: reel
M: 4/4
K: Dmixolydian
d2cf dG (3ABc|~d3B c2AG|Add^c d2fc|(3ABc fd cFAc:|
|:BG~G2 DGAc|BG~G2 cFAc|BG~G2 DGBG|1 (3ABc fd cFAc:|2 (3ABc fd cde^f||
|:g2bg agbg|~g2bg d3e|1 f2af gfaf|~f2af defd:|2 ~f2af gfde|~f3d cFAc||
B2Ad BEFA|~B3G A2FE|FBBA B2dA|FAdB ADFA:|
|:GE~E2 B,EFA|GE~E2 ADFA|GE~E2 B,EGE|1 FAdB ADFA:|2 FAdB ABc^d||
|:e2ge fege|~e2ge B3c|1 d2fd edfd|~d2fd BcdB:|2 ~d2fd edBc|~d3B ADFA||
A2Gc AD (3EFG|A2AF G2ED|EAAG A2cG|(3EFG cA GCEG:|
|:FD~D2 A,DEG|FD~D2 GCEG|FD~D2 A,DFD|1 (3EFG cA GCEG:|2 (3EFG cA GAB^c||
|:d2fd edfd|~d2fd A3B|1 c2ec dcec|~c2ec ABcA:|2 ~c2ec dcAB|~c3A GCEG||

